public/illustrations/_bublle.svg

<svg width="300" height="300" viewBox="0 0 300 300" fill="none" xmlns="http://www.w3.org/2000/svg">
<path d="M70.0029 142.654C70.2536 132.238 73.4768 122.11 79.2928 113.464C87.3628 101.074 98.2929 91.8541 111.233 84.8941C124.564 77.7618 139.237 73.4907 154.313 72.3542C166.921 71.2323 179.624 72.7827 191.593 76.9042C204.593 81.4442 215.683 88.7842 223.133 100.724C230.303 112.224 231.773 124.634 228.343 137.644C225.043 150.154 217.803 160.234 208.573 169.024C208.043 169.524 207.573 170.024 206.953 170.484C206.558 170.778 206.261 171.185 206.102 171.651C205.943 172.117 205.929 172.62 206.063 173.094C208.516 188.961 210.936 204.838 213.323 220.724C213.473 221.724 213.803 222.664 213.983 223.644C214.133 224.148 214.138 224.684 213.998 225.19C213.859 225.697 213.58 226.154 213.194 226.511C212.807 226.867 212.329 227.107 211.813 227.205C211.296 227.303 210.763 227.254 210.273 227.064C209.5 226.799 208.77 226.426 208.103 225.954C196.983 218.754 185.866 211.541 174.753 204.314C169.953 201.204 165.133 198.124 160.363 194.964C159.809 194.586 159.182 194.328 158.523 194.206C157.863 194.084 157.186 194.1 156.533 194.254C138.833 197.254 121.443 196.434 104.633 189.614C94.2629 185.404 85.3729 179.134 78.7429 169.944C72.958 162.031 69.8916 152.456 70.0029 142.654V142.654ZM206.593 217.774C206.503 216.594 206.493 216.074 206.413 215.554C204.646 203.807 202.87 192.051 201.083 180.284C200.762 177.768 200.305 175.271 199.713 172.804C198.883 169.664 198.993 169.194 201.613 167.034C211.083 159.244 218.173 149.744 221.923 137.984C225.673 126.224 224.613 114.984 218.323 104.394C213.653 96.5041 206.893 90.8342 198.903 86.5642C187.673 80.5642 175.543 78.2542 162.903 78.0542C156.909 77.9686 150.922 78.4609 145.023 79.5242C126.843 82.7942 110.513 90.0242 96.6229 102.344C88.6929 109.344 82.4129 117.674 78.8629 127.744C73.3529 143.334 75.6129 157.624 86.6429 170.184C92.5729 176.954 100.093 181.504 108.433 184.674C123.486 189.969 139.666 191.217 155.353 188.294C156.708 187.922 158.128 187.855 159.512 188.099C160.895 188.343 162.207 188.891 163.353 189.704C174.253 196.914 185.253 203.984 196.223 211.104C199.483 213.214 202.753 215.354 206.593 217.774Z" fill="#3558A2"/>
<path d="M206.591 217.773C202.751 215.303 199.481 213.213 196.221 211.103C185.221 203.983 174.221 196.913 163.351 189.703C162.205 188.889 160.893 188.341 159.509 188.097C158.126 187.854 156.705 187.92 155.351 188.293C139.664 191.216 123.484 189.967 108.431 184.673C100.091 181.503 92.5708 176.953 86.6408 170.183C75.6408 157.623 73.3508 143.333 78.8608 127.743C82.4108 117.673 88.6908 109.382 96.6208 102.342C110.511 90.0225 126.841 82.7924 145.021 79.5224C150.92 78.4592 156.907 77.9669 162.901 78.0525C175.491 78.2525 187.621 80.5725 198.901 86.5625C206.901 90.8325 213.651 96.5025 218.321 104.392C224.611 115.022 225.641 126.303 221.921 137.983C218.201 149.663 211.081 159.243 201.611 167.033C198.991 169.193 198.881 169.663 199.711 172.803C200.303 175.269 200.76 177.766 201.081 180.283C202.881 192.043 204.657 203.799 206.411 215.553C206.491 216.073 206.501 216.593 206.591 217.773ZM133.861 149.353C135.331 148.963 136.181 148.693 137.041 148.513C145.561 146.753 154.087 144.996 162.621 143.243C164.402 142.926 166.165 142.512 167.901 142.003C169.781 141.383 170.521 140.003 170.091 138.473C169.828 137.74 169.311 137.126 168.634 136.743C167.956 136.359 167.164 136.231 166.401 136.383C166.131 136.425 165.864 136.482 165.601 136.553L143.491 141.093C140.111 141.793 136.741 142.533 133.361 143.203C130.981 143.663 130.801 143.553 130.131 141.203C129.698 139.632 129.364 138.035 129.131 136.423C128.881 134.703 129.131 134.493 130.901 134.063L132.761 133.663C142.188 131.803 151.617 129.939 161.051 128.073C161.944 127.929 162.813 127.66 163.631 127.273C164.173 127.023 164.618 126.602 164.897 126.074C165.175 125.546 165.271 124.941 165.171 124.353C165.035 123.728 164.695 123.166 164.204 122.757C163.713 122.347 163.1 122.114 162.461 122.093C161.454 122.065 160.447 122.156 159.461 122.363C150.391 124.133 141.321 125.953 132.241 127.743C131.491 127.883 130.711 127.893 129.581 127.993C129.69 126.896 129.911 125.814 130.241 124.762C131.431 122.122 132.411 119.283 134.101 117.003C141.781 106.653 152.101 102.603 164.881 104.563C165.945 104.784 167.02 104.95 168.101 105.063C168.787 105.1 169.465 104.901 170.022 104.499C170.579 104.097 170.981 103.516 171.161 102.852C171.282 102.221 171.185 101.567 170.885 100.998C170.585 100.429 170.101 99.9791 169.511 99.7225C168.439 99.255 167.314 98.9192 166.161 98.7225C147.221 95.0425 127.161 106.843 123.451 127.303C123.425 128.011 123.136 128.684 122.64 129.19C122.145 129.697 121.478 130.001 120.771 130.043C116.671 130.773 112.591 131.653 108.501 132.483C107.965 132.572 107.437 132.703 106.921 132.873C106.205 133.049 105.585 133.495 105.19 134.117C104.795 134.739 104.656 135.49 104.801 136.213C104.928 136.895 105.307 137.506 105.862 137.922C106.418 138.339 107.11 138.532 107.801 138.463C108.526 138.471 109.25 138.404 109.961 138.263C112.191 137.833 114.401 137.343 116.631 136.923C118.631 136.543 120.631 136.203 122.781 135.833C123.421 139.013 124.001 141.893 124.621 144.943C123.461 145.223 122.621 145.463 121.731 145.653C117.201 146.593 112.671 147.503 108.151 148.463C105.611 148.993 104.231 150.403 104.491 152.083C104.771 153.943 106.601 154.853 109.271 154.323C114.611 153.323 119.941 152.203 125.271 151.023C125.897 150.776 126.594 150.773 127.223 151.013C127.852 151.254 128.368 151.721 128.671 152.323C130.909 155.747 133.744 158.741 137.041 161.163C150.771 171.593 171.041 170.743 183.771 159.163C185.189 157.892 186.475 156.481 187.611 154.953C188.069 154.37 188.279 153.631 188.194 152.895C188.11 152.159 187.739 151.486 187.161 151.023C186.563 150.599 185.835 150.399 185.105 150.455C184.374 150.512 183.687 150.822 183.161 151.333C182.421 151.993 181.791 152.783 181.081 153.483C178.163 156.385 174.697 158.678 170.884 160.227C167.071 161.776 162.988 162.55 158.873 162.504C154.758 162.459 150.693 161.594 146.915 159.961C143.138 158.328 139.723 155.959 136.871 152.993C135.931 151.883 135.081 150.813 133.861 149.353Z" fill="white"/>
<path d="M133.862 149.354C135.112 150.824 135.932 151.894 136.862 152.864C139.715 155.83 143.129 158.199 146.907 159.832C150.684 161.465 154.749 162.33 158.865 162.376C162.98 162.421 167.063 161.647 170.876 160.098C174.689 158.549 178.155 156.256 181.072 153.354C181.782 152.654 182.412 151.864 183.152 151.204C183.678 150.694 184.366 150.383 185.096 150.327C185.827 150.27 186.554 150.471 187.152 150.894C187.73 151.357 188.102 152.03 188.186 152.766C188.27 153.502 188.06 154.242 187.602 154.824C186.467 156.353 185.18 157.763 183.762 159.034C171.002 170.654 150.762 171.504 137.032 161.034C133.735 158.612 130.9 155.618 128.662 152.194C128.36 151.592 127.843 151.125 127.214 150.885C126.585 150.644 125.889 150.647 125.262 150.894C119.942 152.074 114.612 153.144 109.262 154.194C106.592 154.724 104.762 153.814 104.482 151.954C104.222 150.274 105.602 148.864 108.142 148.334C112.662 147.334 117.142 146.464 121.722 145.524C122.592 145.334 123.452 145.094 124.612 144.814C123.992 141.814 123.412 138.884 122.772 135.704C120.652 136.074 118.632 136.414 116.622 136.794C114.392 137.214 112.182 137.704 109.952 138.134C109.241 138.275 108.517 138.342 107.792 138.334C107.101 138.403 106.409 138.21 105.854 137.794C105.298 137.377 104.919 136.767 104.792 136.084C104.647 135.361 104.787 134.61 105.182 133.988C105.577 133.366 106.197 132.92 106.912 132.744C107.428 132.574 107.957 132.444 108.492 132.354C112.582 131.524 116.662 130.644 120.762 129.914C121.47 129.872 122.136 129.568 122.632 129.062C123.127 128.555 123.416 127.882 123.442 127.174C127.162 106.714 147.212 94.9138 166.152 98.5938C167.305 98.7905 168.43 99.1263 169.502 99.5938C170.092 99.8504 170.577 100.3 170.877 100.869C171.177 101.438 171.274 102.092 171.152 102.724C170.972 103.387 170.57 103.968 170.013 104.37C169.456 104.773 168.778 104.972 168.092 104.934C167.011 104.822 165.937 104.655 164.872 104.434C152.142 102.434 141.772 106.524 134.092 116.874C132.402 119.154 131.422 121.994 130.232 124.634C129.902 125.685 129.681 126.767 129.572 127.864C130.702 127.764 131.482 127.754 132.232 127.614C141.312 125.824 150.382 124.004 159.452 122.234C160.438 122.027 161.445 121.936 162.452 121.964C163.091 121.985 163.705 122.219 164.196 122.628C164.687 123.038 165.027 123.599 165.162 124.224C165.263 124.812 165.167 125.417 164.888 125.945C164.61 126.473 164.165 126.895 163.622 127.144C162.805 127.531 161.936 127.801 161.042 127.944C151.616 129.824 142.186 131.687 132.752 133.534L130.892 133.934C129.092 134.364 128.892 134.574 129.122 136.294C129.355 137.906 129.689 139.503 130.122 141.074C130.792 143.474 130.972 143.584 133.352 143.074C136.732 142.404 140.102 141.664 143.482 140.964L165.592 136.424C165.856 136.353 166.123 136.296 166.392 136.254C167.156 136.103 167.948 136.231 168.625 136.614C169.302 136.998 169.819 137.611 170.082 138.344C170.512 139.864 169.772 141.254 167.892 141.874C166.156 142.384 164.394 142.798 162.612 143.114C154.079 144.88 145.552 146.637 137.032 148.384C136.182 148.684 135.332 148.954 133.862 149.354Z" fill="#3558A2"/>
</svg>

<svg xmlns="http://www.w3.org/2000/svg" width="300" height="300" fill="none" viewBox="0 0 300 300"><path fill="#3558a2" d="M70.003 142.654a54.65 54.65 0 0 1 9.29-29.19c8.07-12.39 19-21.61 31.94-28.57a108.6 108.6 0 0 1 43.08-12.54 90 90 0 0 1 37.28 4.55c13 4.54 24.09 11.88 31.54 23.82 7.17 11.5 8.64 23.91 5.21 36.92-3.3 12.51-10.54 22.59-19.77 31.38-.53.5-1 1-1.62 1.46a2.44 2.44 0 0 0-.89 2.61q3.68 23.8 7.26 47.63c.15 1 .48 1.94.66 2.92a2.813 2.813 0 0 1-2.17 3.561 2.8 2.8 0 0 1-1.54-.141 8.6 8.6 0 0 1-2.17-1.11q-16.68-10.8-33.35-21.64c-4.8-3.11-9.62-6.19-14.39-9.35a4.82 4.82 0 0 0-3.83-.71c-17.7 3-35.09 2.18-51.9-4.64-10.37-4.21-19.26-10.48-25.89-19.67a45.37 45.37 0 0 1-8.74-27.29m136.59 75.12c-.09-1.18-.1-1.7-.18-2.22a25265 25265 0 0 0-5.33-35.27 70 70 0 0 0-1.37-7.48c-.83-3.14-.72-3.61 1.9-5.77 9.47-7.79 16.56-17.29 20.31-29.05s2.69-23-3.6-33.59c-4.67-7.89-11.43-13.56-19.42-17.83-11.23-6-23.36-8.31-36-8.51a93.3 93.3 0 0 0-17.88 1.47c-18.18 3.27-34.51 10.5-48.4 22.82-7.93 7-14.21 15.33-17.76 25.4-5.51 15.59-3.25 29.88 7.78 42.44 5.93 6.77 13.45 11.32 21.79 14.49a91.1 91.1 0 0 0 46.92 3.62 9.49 9.49 0 0 1 8 1.41c10.9 7.21 21.9 14.28 32.87 21.4 3.26 2.11 6.53 4.25 10.37 6.67"/><path fill="#fff" d="M206.591 217.773c-3.84-2.47-7.11-4.56-10.37-6.67-11-7.12-22-14.19-32.87-21.4a9.47 9.47 0 0 0-8-1.41 91.1 91.1 0 0 1-46.92-3.62c-8.34-3.17-15.86-7.72-21.79-14.49-11-12.56-13.29-26.85-7.78-42.44 3.55-10.07 9.83-18.361 17.76-25.401 13.89-12.32 30.22-19.55 48.4-22.82a93.3 93.3 0 0 1 17.88-1.47c12.59.2 24.72 2.52 36 8.51 8 4.27 14.75 9.94 19.42 17.83 6.29 10.63 7.32 21.911 3.6 33.591s-10.84 21.26-20.31 29.05c-2.62 2.16-2.73 2.63-1.9 5.77a70 70 0 0 1 1.37 7.48q2.7 17.64 5.33 35.27c.08.52.09 1.04.18 2.22m-72.73-68.42c1.47-.39 2.32-.66 3.18-.84q12.78-2.64 25.58-5.27a50 50 0 0 0 5.28-1.24c1.88-.62 2.62-2 2.19-3.53a3.25 3.25 0 0 0-3.69-2.09q-.405.063-.8.17l-22.11 4.54c-3.38.7-6.75 1.44-10.13 2.11-2.38.46-2.56.35-3.23-2a39 39 0 0 1-1-4.78c-.25-1.72 0-1.93 1.77-2.36l1.86-.4q14.14-2.79 28.29-5.59a9.6 9.6 0 0 0 2.58-.8 2.717 2.717 0 0 0 1.54-2.92 2.87 2.87 0 0 0-2.71-2.26 13 13 0 0 0-3 .27c-9.07 1.77-18.14 3.59-27.22 5.38-.75.14-1.53.15-2.66.25.109-1.097.33-2.179.66-3.231 1.19-2.64 2.17-5.479 3.86-7.759 7.68-10.35 18-14.4 30.78-12.44q1.597.331 3.22.5a3.006 3.006 0 0 0 3.06-2.211 2.83 2.83 0 0 0-1.65-3.13 14.5 14.5 0 0 0-3.35-1c-18.94-3.68-39 8.121-42.71 28.581a2.849 2.849 0 0 1-2.68 2.74c-4.1.73-8.18 1.61-12.27 2.44q-.805.134-1.58.39a2.86 2.86 0 0 0-2.12 3.34 2.77 2.77 0 0 0 3 2.25c.725.008 1.449-.059 2.16-.2 2.23-.43 4.44-.92 6.67-1.34 2-.38 4-.72 6.15-1.09.64 3.18 1.22 6.06 1.84 9.11-1.16.28-2 .52-2.89.71-4.53.94-9.06 1.85-13.58 2.81-2.54.53-3.92 1.94-3.66 3.62.28 1.86 2.11 2.77 4.78 2.24 5.34-1 10.67-2.12 16-3.3a2.7 2.7 0 0 1 3.4 1.3 34.2 34.2 0 0 0 8.37 8.84c13.73 10.43 34 9.58 46.73-2a28.4 28.4 0 0 0 3.84-4.21 2.81 2.81 0 0 0-.45-3.93 3.14 3.14 0 0 0-4 .31c-.74.66-1.37 1.45-2.08 2.15a31.02 31.02 0 0 1-22.208 9.021 31 31 0 0 1-22.002-9.511c-.94-1.11-1.79-2.18-3.01-3.64"/><path fill="#3558a2" d="M133.862 149.354c1.25 1.47 2.07 2.54 3 3.51a31.01 31.01 0 0 0 34.014 7.234 31 31 0 0 0 10.196-6.744c.71-.7 1.34-1.49 2.08-2.15a3.14 3.14 0 0 1 4-.31 2.807 2.807 0 0 1 .45 3.93 28.3 28.3 0 0 1-3.84 4.21c-12.76 11.62-33 12.47-46.73 2a34.2 34.2 0 0 1-8.37-8.84 2.7 2.7 0 0 0-1.448-1.309 2.7 2.7 0 0 0-1.952.009c-5.32 1.18-10.65 2.25-16 3.3-2.67.53-4.5-.38-4.78-2.24-.26-1.68 1.12-3.09 3.66-3.62 4.52-1 9-1.87 13.58-2.81.87-.19 1.73-.43 2.89-.71-.62-3-1.2-5.93-1.84-9.11-2.12.37-4.14.71-6.15 1.09-2.23.42-4.44.91-6.67 1.34-.711.141-1.435.208-2.16.2a2.773 2.773 0 0 1-3-2.25 2.86 2.86 0 0 1 2.12-3.34q.776-.255 1.58-.39c4.09-.83 8.17-1.71 12.27-2.44a2.853 2.853 0 0 0 2.68-2.74c3.72-20.46 23.77-32.26 42.71-28.58 1.153.197 2.278.532 3.35 1a2.83 2.83 0 0 1 1.65 3.13 3 3 0 0 1-3.06 2.21 32 32 0 0 1-3.22-.5c-12.73-2-23.1 2.09-30.78 12.44-1.69 2.28-2.67 5.12-3.86 7.76a16 16 0 0 0-.66 3.23c1.13-.1 1.91-.11 2.66-.25 9.08-1.79 18.15-3.61 27.22-5.38a13 13 0 0 1 3-.27 2.87 2.87 0 0 1 2.71 2.26 2.706 2.706 0 0 1-1.54 2.92 9.6 9.6 0 0 1-2.58.8 8171 8171 0 0 1-28.29 5.59l-1.86.4c-1.8.43-2 .64-1.77 2.36a39 39 0 0 0 1 4.78c.67 2.4.85 2.51 3.23 2 3.38-.67 6.75-1.41 10.13-2.11l22.11-4.54q.396-.107.8-.17a3.25 3.25 0 0 1 3.69 2.09c.43 1.52-.31 2.91-2.19 3.53q-2.605.765-5.28 1.24-12.8 2.65-25.58 5.27c-.85.3-1.7.57-3.17.97"/></svg>
